ES1T1/16/aimg/uvas.svg

<svg clip-rule="evenodd" fill-rule="evenodd" stroke-linejoin="round" stroke-miterlimit="2" viewBox="0 0 382 260" xmlns="http://www.w3.org/2000/svg" xmlns:xlink="http://www.w3.org/1999/xlink"><linearGradient id="a"><stop offset="0" stop-color="#fff"/><stop offset="1" stop-color="#855683"/></linearGradient><radialGradient id="b" cx="0" cy="0" gradientTransform="matrix(33.7284 18.696 -18.696 33.7284 320.648 292.518)" gradientUnits="userSpaceOnUse" r="1" xlink:href="#a"/><radialGradient id="c" cx="0" cy="0" gradientTransform="matrix(32.7461 18.1515 -18.1515 32.7461 350.649 356.01)" gradientUnits="userSpaceOnUse" r="1" xlink:href="#a"/><radialGradient id="d" cx="0" cy="0" gradientTransform="matrix(32.3332 17.9226 -17.9226 32.3332 286.129 235.68)" gradientUnits="userSpaceOnUse" r="1" xlink:href="#a"/><radialGradient id="e" cx="0" cy="0" gradientTransform="matrix(30.3658 16.8321 -16.8321 30.3658 145.008 364.132)" gradientUnits="userSpaceOnUse" r="1" xlink:href="#a"/><radialGradient id="f" cx="0" cy="0" gradientTransform="matrix(31.4536 17.4351 -17.4351 31.4536 245.376 190.338)" gradientUnits="userSpaceOnUse" r="1" xlink:href="#a"/><radialGradient id="g" cx="0" cy="0" gradientTransform="matrix(30.9884 17.1772 -17.1772 30.9884 248.054 298.917)" gradientUnits="userSpaceOnUse" r="1" xlink:href="#a"/><radialGradient id="h" cx="0" cy="0" gradientTransform="matrix(31.1923 17.2902 -17.2902 31.1923 210.02 251.946)" gradientUnits="userSpaceOnUse" r="1" xlink:href="#a"/><radialGradient id="i" cx="0" cy="0" gradientTransform="matrix(30.2127 16.7472 -16.7472 30.2127 216.179 357.785)" gradientUnits="userSpaceOnUse" r="1" xlink:href="#a"/><radialGradient id="j" cx="0" cy="0" gradientTransform="matrix(29.2051 16.1887 -16.1887 29.2051 281.211 353.514)" gradientUnits="userSpaceOnUse" r="1" xlink:href="#a"/><radialGradient id="k" cx="0" cy="0" gradientTransform="matrix(29.4518 16.3254 -16.3254 29.4518 175.465 307.853)" gradientUnits="userSpaceOnUse" r="1" xlink:href="#a"/><g fill-rule="nonzero" transform="translate(-104 -140)"><path d="m451.09 347.5c8.87 2.1 17.85 4.27 27.03 1.71 6.62-1.85 8.56-5.15 6.07-11.57-5.1-13.16-10.12-26.45-21.16-36.19-.65-.58-.92-1.6-1.46-2.59 5.25-3.42 10.36-6.51 15.21-9.97 4.27-3.04 4.41-6.49.33-9.81-3.47-2.83-7.12-5.6-11.09-7.6-20.2-10.17-41.52-15.54-64.31-14.18-.99.06-2.01-.44-3.02-.68 1.78-1.56 3.59-2.32 5.44-2.47 15.7-1.28 31.41-2.51 47.13-3.64 6.46-.47 10.65-3.47 12.13-9.09 1.73-6.58-1.35-14.01-8.64-17.28-17.73-7.95-35.93-10.55-54.41-2.16-4.62 2.1-9.15 4.39-14.47 6.95.73-3.25 1.38-5.62 1.79-8.03 2.52-15.04.65-29.42-11.4-39.62-5.71-4.83-10.65-8.82-13.31-16.25-2.89-8.06-10.01-13.11-17.14-18.03-11.26-7.77-24.8-8.48-35.56-.59-4.51 3.31-5.67 7.5-3.63 13.11 14.87-3.62 28.84 1.21 32.14 11.79-18.27 2.68-27.54 16.9-24.24 32.97-7.42-4.3-17.78-7.64-29.1-7.25 3.64-14.45-1.65-28.22-12.21-37.59-7.71-6.83-17.75-8.06-28.05-7.83-17.19.39-35.39 14.18-40.11 30.82-2.46 8.67-2.11 16.96 2.87 25.82-14.45 1.04-23.9 8.85-31.1 19.83-7.62 11.63-5.79 24.02-2.33 36.4-32.98 7.09-42.2 34.17-34.67 56.58-9.93 2.07-18.29 7.17-25.07 14.46-8.4 9.04-12.34 20.49-9.62 32.22 4.98 21.43 23.76 32.39 44.31 32.04 13.31-.22 23.65-8.05 32.37-17.61 2.85-3.12 4.78-4.17 7.58-.13 1.07 1.55 2.97 2.58 4.62 3.66 15.64 10.17 38.58 9.44 53.38-3.43 3.74-3.25 7.18-5.09 11.67-.6 2.37 2.37 5.85 4.26 9.13 4.97 6.19 1.34 12.87 3.15 18.86 2.06 7.49-1.37 14.57-5.25 21.64-8.47 3.19-1.45 5.35-1.6 7.77 1.27 6.5 7.69 14.46 13.29 24.62 14.81 20.08 7.73 57.98-17.99 52.4-48.12-1.77-4.65.52-6.97 2.59-9.03 6.6 6.17 12.49 12.44 19.17 17.69 6.19 4.86 13.07 8.93 19.96 12.79 4.02 2.25 7.97.47 9.16-3.84 1.25-4.53 1.51-9.43 1.58-14.17.05-5.3.16-5.31 5.15-4.13zm-105.26-159.05c1.1 1.82 1.26 5.14.33 7.07-1.53 3.15-4.46 6.99-8.21 4.97-7.46-3.3 4.85-16.95 7.88-12.04zm2.75 65.03c-1.22 1.16-3.66 1.93-5.28 1.61-5.5-1.09-10.93-2.61-16.27-4.31-.94-.3-2.22-2.59-1.9-3.33 4.37-10.06 2.38-20.05-.1-30.61 3.07.65 6 .99 8.75 1.9 8.42.12 12-1.28 16.52-3.98 5.56-3.32 7.79-5.98 11.13-10.63 2.45-2.64 4.47-2.22 4.98.64.88 4.91 1.51 10.11.86 15.01-1.81 13.56-8.96 24.46-18.69 33.7z" fill="#252723"/><path d="m425.66 332.55c-.6.43-1.19.87-1.79 1.3-1.34-1.4-2.81-2.69-4-4.2-6.02-7.66-6.33-16.85-6.99-25.99-.12-1.68-1.06-3.96-2.36-4.8-7.55-4.81-15-10-23.12-13.65-7.79-3.51-16.29-5.47-24.58-7.77-3.31-.92-6.29-.27-6.67 4.31-1.21 14.54 2.94 27.65 11.03 39.46 3.24 4.73 7.51 8.86 11.78 12.74 2.64 2.4 6.17 3.84 9.29 5.71 1.45-3.01 2.88-6.04 4.38-9.02.54-1.08 1.26-2.07 1.9-3.11 1.1.81 2.83 1.39 3.19 2.45 3.35 9.68 10.04 16.72 17.99 22.59 6.09 4.5 12.46 8.71 19.07 12.38 3.54 1.96 6.37-.39 6.53-4.24.22-5.27-.27-10.58-.5-15.87-.07-1.52-.27-3.03-.4-4.55 1.68.26 3.46.25 5.03.82 9.82 3.55 19.74 5.82 30.23 3.43 2.97-.67 5.32-2.05 4.09-5.44-4.98-13.74-9.88-27.56-22.79-36.42-1.73-1.19-2.8-3.35-4.09-4.96 5.88-3.41 11.08-6.32 16.18-9.42 5.96-3.62 6.09-5.12.48-9.15-15.88-11.38-34.35-15.72-53.21-17.71-10.95-1.16-22.21.01-33.28.72-7.74.5-14.29 4.35-20.9 9.31 1.41.78 2.06 1.25 2.78 1.52 9.45 3.54 18.87 7.17 28.41 10.45 1.95.67 4.55.53 6.53-.16 11.61-4.05 23.37-6.61 35.69-4.39 1.97.36 3.72 1.96 5.57 2.99-.21.62-.43 1.25-.64 1.87-13.09-3.58-25.44-1.25-38.67 3.72 16.68 12.95 35.07 22.01 47.84 38.46-1.89.17-3.82-.01-5.04-1.04-2.53-2.11-4.48-4.94-7.05-6.99-6.12-4.87-12.45-9.46-19.59-14.84-1.84 12.13 2.51 20.91 7.68 29.49z" fill="#53904e"/><path d="m299.79 325.55c5.83 3.91 12.67 4.84 20.06 4.32 13.52-.95 23.29-8.68 32.65-17.26 2.52-2.31 3.04-5.22 1.77-8.66-2.97-8.06-4.35-16.42-2.56-24.93 2.12-10.09-.97-14.01-8.23-18.56-16.58-10.38-50.1-5.52-58.74 19.57-5.94 17.24-1.28 37.32 15.05 45.52z" fill="url(#b)"/><path d="m386.56 345.09c-10.89-6.61-18.7-16.26-26.13-26.19-2.81-3.76-4.09-3.44-7.58-.85-7.13 5.29-14.49 10.68-22.57 14.13-4.48 1.92-8.02 3.85-11.34 7.36-7.11 7.5-8.79 16.11-6.44 25.7 4.43 18 21.47 29.56 41.7 28.02 14.15-1.09 43.54-25.79 32.36-48.17z" fill="url(#c)"/><path d="m253.12 220.09c-10.49 18.7-4.13 36.81 12.8 47.19 4.49 2.76 11.19 2.71 16.81 2.44 2.43-.12 4.66-4.08 7.02-6.26 1.58-1.47 5.36-4.42 7.24-5.24 5.44-3.14 9.65-4.47 16.96-6.63 2.23-.87 5.68-1.05 6.51-2.63 4.6-8.78 4.76-18.24 1.3-27.35-3.98-10.49-11.29-17.54-22.38-19.79-22.68-4.79-35.38-.23-46.26 18.27z" fill="url(#d)"/><path d="m176.76 346.43c-10.85-2.08-20.41-5.13-27.3-14.1-3.36-4.37-7.43-9.02-14.51-5.56-11.97 5.84-21.85 12.63-25.06 27.26-5.28 24.05 17.06 45.92 43.26 41.05 10.07-1.87 17.86-7.91 24.73-15.05 3.44-3.57 5.7-7.37 2.15-12.98-2.22-3.51-2.14-8.54-2.83-12.93-.41-2.58-.32-5.22-.44-7.69z" fill="url(#e)"/><path d="m282.08 196.68c.59-3.74.35-6.21.63-9.11 1.12-11.81-8.86-25.23-18.92-28.77-17.99-6.33-36.92-1.7-48.57 14.5-5.01 6.97-9.2 14.47-7.02 23.5 4.64 19.21 14.16 25.74 30.88 27.99 3.98.54 6.31.11 8.5-3.58 3.33-5.59 7.06-11.12 11.88-15.43 6.34-5.66 16.43-9.94 22.62-9.1z" fill="url(#f)"/><path d="m280.25 312.87c-2.91-11.18-5.46-22.49-.16-33.88 1.4-3.01-.41-4.37-3.32-4.41-7.84-.12-13.95-4.09-19.37-9.11-3.36-3.11-6.92-4.21-11.31-3.66-9.96 1.25-17.62 6.41-23.94 13.88-7.22 8.54-11.27 18.01-8.06 29.41 4.1 14.58 11.3 26.25 27.66 29.32 2.89.54 4.62-.16 6.79-2.5 4.22-4.56 8.86-9.06 14.15-12.21 5.28-3.13 11.56-4.59 17.56-6.84z" fill="url(#g)"/><path d="m248.59 256.71c-.56-1.78-.78-3.48-1.58-4.83-3.1-5.25-3.95-11.09-3.09-16.81.85-5.68-1.77-6.23-6.22-6.55-9.21-.66-17.71-3.76-23.6-11.1-2.87-3.57-5.23-4.37-9.75-4.02-16.36 1.27-30.61 22.33-28.44 36.65 1.4 9.26 3.16 18.45 9.47 26.3 5.08 6.31 15.9 12.01 23.88 10.44 1.11-.22 2.17-1.68 2.88-2.81 2.12-3.36 3.67-7.17 6.15-10.21 7.71-9.45 17.68-15.27 30.3-17.06z" fill="url(#h)"/><path d="m184.94 338c-4.66 9.43-5.54 19.12-.68 28.61 3.52 6.87 6.74 14.59 14.38 17.86 17.02 7.29 32.97 4.82 47.66-6.51 3.35-2.58 3.82-4.98 1.46-8.37-5.49-7.87-7.7-16.44-5.16-25.93.83-3.1.03-4.92-3.41-5.77-9.7-2.38-17.42-7.62-23-16.1-.92-1.41-3.63-2.72-5.22-2.43-11.55 2.05-20.59 7.91-26.03 18.64z" fill="url(#i)"/><path d="m314.72 335.49c-.33-.21-.72-.65-1.16-.72-11.27-1.67-20.92-6.23-28.15-15.36-.68-.86-2.29-1.35-3.48-1.37-12.53-.28-29.23 12.04-33.52 23.86-4.62 12.72-1.15 23.53 7.84 32.35 7.7 7.56 17.24 13.16 28.67 10.61 7.34-1.64 14.27-5.16 21.35-7.92 3.4-1.32 3.67-3.61 3.09-7.2-1.05-6.45-1.94-13.2-1.09-19.58.65-4.95 4.07-9.53 6.45-14.67z" fill="url(#j)"/><path d="m211.65 313.57c-.88-5.09-2.55-10.61-2.55-16.12-.01-4.34-1.26-5.69-5.24-6.48-9.6-1.9-17.47-6.51-23.04-15.03-1.75-2.68-3.51-6.48-8.32-5.97-16.6 1.78-32.24 21.85-30.62 37.6 1.01 9.81 5.45 16.89 11.72 23.85 5.58 6.18 11.89 9.2 20.15 8.8 3.3-.16 5.52-.97 7.14-4.16 3.37-6.65 8.24-12.02 15.17-15.23 5.23-2.41 10.44-4.86 15.59-7.26z" fill="url(#k)"/><path d="m309.97 154.16c11.17-1.81 19.73 1.71 27.81 8.14 8.29 6.6 15.42 22.45 13.37 32.7-1.02 5.1-4.48 8.45-9.72 9.42-3.59.67-6.74-.08-8.66-3.35-2.56-4.35-1.29-8.76 1.76-11.95 2.94-3.08 7.01-5.08 10.8-7.71-1.01-4.99-1.65-5.55-6.89-5.6-8.06-.07-17.34 6.57-19.68 14.48-2.49 8.44-.55 17.01 5.87 20.78 17.32 10.17 33.06-3.52 37.02-17.11 7.34-25.26-9.79-45.06-32.44-48.74-8.92-1.44-15.54 1.73-19.24 8.94z" fill="#99ba48"/><path d="m438.06 246.01c.11-.44.22-.88.33-1.33-10.62-3.37-19.06-9.33-24.17-19.36-1.62-3.18-4.21-3.41-7.19-1.97-5.07 2.46-10.26 4.67-15.18 7.4-13.49 7.49-27.34 14.47-37.94 26.24-2.23 2.48-2.4 3.98-.47 6.73 3.33 4.74 6.69 1.73 9.53.19 18.01-9.72 37.28-14.71 57.58-16.17 5.86-.41 11.68-1.14 17.51-1.73z" fill="#998553"/><path d="m364.74 241c15.69-4.41 20.61-21.06 19.47-32.38-1.51-14.95-7.09-25.23-16.21-26.91-.73 3.84-1.58 7.67-2.12 11.54-.14 1.01.36 2.41 1.06 3.19 8.52 9.58 6.82 20.27 3.34 31.05-1.42 4.35-3.47 8.5-5.54 13.51z" fill="#99ba48"/><path d="m417.12 221.71c4.31 12.17 14.55 16.2 24.41 20.51 3.26 1.42 6.97 2.48 10.48 2.51 5.76.05 8.54-4.28 6.17-9.54-1.31-2.9-3.43-6.31-6.09-7.56-10.89-5.11-22.39-7.87-34.97-5.92z" fill="#a99868"/></g></svg>

<?xml version="1.0" encoding="UTF-8" standalone="no"?>
<!DOCTYPE svg PUBLIC "-//W3C//DTD SVG 1.1//EN" "http://www.w3.org/Graphics/SVG/1.1/DTD/svg11.dtd">
<svg width="100%" height="100%" viewBox="0 0 382 260" version="1.1" xmlns="http://www.w3.org/2000/svg" xmlns:xlink="http://www.w3.org/1999/xlink" xml:space="preserve" xmlns:serif="http://www.serif.com/" style="fill-rule:evenodd;clip-rule:evenodd;stroke-linejoin:round;stroke-miterlimit:2;">
    <g transform="matrix(1,0,0,1,-104,-140)">
        <g id="Capa_1">
            <g>
                <path d="M451.09,347.5C459.96,349.6 468.94,351.77 478.12,349.21C484.74,347.36 486.68,344.06 484.19,337.64C479.09,324.48 474.07,311.19 463.03,301.45C462.38,300.87 462.11,299.85 461.57,298.86C466.82,295.44 471.93,292.35 476.78,288.89C481.05,285.85 481.19,282.4 477.11,279.08C473.64,276.25 469.99,273.48 466.02,271.48C445.82,261.31 424.5,255.94 401.71,257.3C400.72,257.36 399.7,256.86 398.69,256.62C400.47,255.06 402.28,254.3 404.13,254.15C419.83,252.87 435.54,251.64 451.26,250.51C457.72,250.04 461.91,247.04 463.39,241.42C465.12,234.84 462.04,227.41 454.75,224.14C437.02,216.19 418.82,213.59 400.34,221.98C395.72,224.08 391.19,226.37 385.87,228.93C386.6,225.68 387.25,223.31 387.66,220.9C390.18,205.86 388.31,191.48 376.26,181.28C370.55,176.45 365.61,172.46 362.95,165.03C360.06,156.97 352.94,151.92 345.81,147C334.55,139.23 321.01,138.52 310.25,146.41C305.74,149.72 304.58,153.91 306.62,159.52C321.49,155.9 335.46,160.73 338.76,171.31C320.49,173.99 311.22,188.21 314.52,204.28C307.1,199.98 296.74,196.64 285.42,197.03C289.06,182.58 283.77,168.81 273.21,159.44C265.5,152.61 255.46,151.38 245.16,151.61C227.97,152 209.77,165.79 205.05,182.43C202.59,191.1 202.94,199.39 207.92,208.25C193.47,209.29 184.02,217.1 176.82,228.08C169.2,239.71 171.03,252.1 174.49,264.48C141.51,271.57 132.29,298.65 139.82,321.06C129.89,323.13 121.53,328.23 114.75,335.52C106.35,344.56 102.41,356.01 105.13,367.74C110.11,389.17 128.89,400.13 149.44,399.78C162.75,399.56 173.09,391.73 181.81,382.17C184.66,379.05 186.59,378 189.39,382.04C190.46,383.59 192.36,384.62 194.01,385.7C209.65,395.87 232.59,395.14 247.39,382.27C251.13,379.02 254.57,377.18 259.06,381.67C261.43,384.04 264.91,385.93 268.19,386.64C274.38,387.98 281.06,389.79 287.05,388.7C294.54,387.33 301.62,383.45 308.69,380.23C311.88,378.78 314.04,378.63 316.46,381.5C322.96,389.19 330.92,394.79 341.08,396.31C361.16,404.04 399.06,378.32 393.48,348.19C391.71,343.54 394,341.22 396.07,339.16C402.67,345.33 408.56,351.6 415.24,356.85C421.43,361.71 428.31,365.78 435.2,369.64C439.22,371.89 443.17,370.11 444.36,365.8C445.61,361.27 445.87,356.37 445.94,351.63C445.99,346.33 446.1,346.32 451.09,347.5ZM345.83,188.45C346.93,190.27 347.09,193.59 346.16,195.52C344.63,198.67 341.7,202.51 337.95,200.49C330.49,197.19 342.8,183.54 345.83,188.45ZM348.58,253.48C347.36,254.64 344.92,255.41 343.3,255.09C337.8,254 332.37,252.48 327.03,250.78C326.09,250.48 324.81,248.19 325.13,247.45C329.5,237.39 327.51,227.4 325.03,216.84C328.1,217.49 331.03,217.83 333.78,218.74C342.2,218.86 345.78,217.46 350.3,214.76C355.86,211.44 358.09,208.78 361.43,204.13C363.88,201.49 365.9,201.91 366.41,204.77C367.29,209.68 367.92,214.88 367.27,219.78C365.46,233.34 358.31,244.24 348.58,253.48Z" style="fill:rgb(37,39,35);fill-rule:nonzero;"/>
                <path d="M425.66,332.55C425.06,332.98 424.47,333.42 423.87,333.85C422.53,332.45 421.06,331.16 419.87,329.65C413.85,321.99 413.54,312.8 412.88,303.66C412.76,301.98 411.82,299.7 410.52,298.86C402.97,294.05 395.52,288.86 387.4,285.21C379.61,281.7 371.11,279.74 362.82,277.44C359.51,276.52 356.53,277.17 356.15,281.75C354.94,296.29 359.09,309.4 367.18,321.21C370.42,325.94 374.69,330.07 378.96,333.95C381.6,336.35 385.13,337.79 388.25,339.66C389.7,336.65 391.13,333.62 392.63,330.64C393.17,329.56 393.89,328.57 394.53,327.53C395.63,328.34 397.36,328.92 397.72,329.98C401.07,339.66 407.76,346.7 415.71,352.57C421.8,357.07 428.17,361.28 434.78,364.95C438.32,366.91 441.15,364.56 441.31,360.71C441.53,355.44 441.04,350.13 440.81,344.84C440.74,343.32 440.54,341.81 440.41,340.29C442.09,340.55 443.87,340.54 445.44,341.11C455.26,344.66 465.18,346.93 475.67,344.54C478.64,343.87 480.99,342.49 479.76,339.1C474.78,325.36 469.88,311.54 456.97,302.68C455.24,301.49 454.17,299.33 452.88,297.72C458.76,294.31 463.96,291.4 469.06,288.3C475.02,284.68 475.15,283.18 469.54,279.15C453.66,267.77 435.19,263.43 416.33,261.44C405.38,260.28 394.12,261.45 383.05,262.16C375.31,262.66 368.76,266.51 362.15,271.47C363.56,272.25 364.21,272.72 364.93,272.99C374.38,276.53 383.8,280.16 393.34,283.44C395.29,284.11 397.89,283.97 399.87,283.28C411.48,279.23 423.24,276.67 435.56,278.89C437.53,279.25 439.28,280.85 441.13,281.88C440.92,282.5 440.7,283.13 440.49,283.75C427.4,280.17 415.05,282.5 401.82,287.47C418.5,300.42 436.89,309.48 449.66,325.93C447.77,326.1 445.84,325.92 444.62,324.89C442.09,322.78 440.14,319.95 437.57,317.9C431.45,313.03 425.12,308.44 417.98,303.06C416.14,315.19 420.49,323.97 425.66,332.55Z" style="fill:rgb(83,144,78);fill-rule:nonzero;"/>
                <path d="M299.79,325.55C305.62,329.46 312.46,330.39 319.85,329.87C333.37,328.92 343.14,321.19 352.5,312.61C355.02,310.3 355.54,307.39 354.27,303.95C351.3,295.89 349.92,287.53 351.71,279.02C353.83,268.93 350.74,265.01 343.48,260.46C326.9,250.08 293.38,254.94 284.74,280.03C278.8,297.27 283.46,317.35 299.79,325.55Z" style="fill:url(#_Radial1);fill-rule:nonzero;"/>
                <path d="M386.56,345.09C375.67,338.48 367.86,328.83 360.43,318.9C357.62,315.14 356.34,315.46 352.85,318.05C345.72,323.34 338.36,328.73 330.28,332.18C325.8,334.1 322.26,336.03 318.94,339.54C311.83,347.04 310.15,355.65 312.5,365.24C316.93,383.24 333.97,394.8 354.2,393.26C368.35,392.17 397.74,367.47 386.56,345.09Z" style="fill:url(#_Radial2);fill-rule:nonzero;"/>
                <path d="M253.12,220.09C242.63,238.79 248.99,256.9 265.92,267.28C270.41,270.04 277.11,269.99 282.73,269.72C285.16,269.6 287.39,265.64 289.75,263.46C291.33,261.99 295.11,259.04 296.99,258.22C302.43,255.08 306.64,253.75 313.95,251.59C316.18,250.72 319.63,250.54 320.46,248.96C325.06,240.18 325.22,230.72 321.76,221.61C317.78,211.12 310.47,204.07 299.38,201.82C276.7,197.03 264,201.59 253.12,220.09Z" style="fill:url(#_Radial3);fill-rule:nonzero;"/>
                <path d="M176.76,346.43C165.91,344.35 156.35,341.3 149.46,332.33C146.1,327.96 142.03,323.31 134.95,326.77C122.98,332.61 113.1,339.4 109.89,354.03C104.61,378.08 126.95,399.95 153.15,395.08C163.22,393.21 171.01,387.17 177.88,380.03C181.32,376.46 183.58,372.66 180.03,367.05C177.81,363.54 177.89,358.51 177.2,354.12C176.79,351.54 176.88,348.9 176.76,346.43Z" style="fill:url(#_Radial4);fill-rule:nonzero;"/>
                <path d="M282.08,196.68C282.67,192.94 282.43,190.47 282.71,187.57C283.83,175.76 273.85,162.34 263.79,158.8C245.8,152.47 226.87,157.1 215.22,173.3C210.21,180.27 206.02,187.77 208.2,196.8C212.84,216.01 222.36,222.54 239.08,224.79C243.06,225.33 245.39,224.9 247.58,221.21C250.91,215.62 254.64,210.09 259.46,205.78C265.8,200.12 275.89,195.84 282.08,196.68Z" style="fill:url(#_Radial5);fill-rule:nonzero;"/>
                <path d="M280.25,312.87C277.34,301.69 274.79,290.38 280.09,278.99C281.49,275.98 279.68,274.62 276.77,274.58C268.93,274.46 262.82,270.49 257.4,265.47C254.04,262.36 250.48,261.26 246.09,261.81C236.13,263.06 228.47,268.22 222.15,275.69C214.93,284.23 210.88,293.7 214.09,305.1C218.19,319.68 225.39,331.35 241.75,334.42C244.64,334.96 246.37,334.26 248.54,331.92C252.76,327.36 257.4,322.86 262.69,319.71C267.97,316.58 274.25,315.12 280.25,312.87Z" style="fill:url(#_Radial6);fill-rule:nonzero;"/>
                <path d="M248.59,256.71C248.03,254.93 247.81,253.23 247.01,251.88C243.91,246.63 243.06,240.79 243.92,235.07C244.77,229.39 242.15,228.84 237.7,228.52C228.49,227.86 219.99,224.76 214.1,217.42C211.23,213.85 208.87,213.05 204.35,213.4C187.99,214.67 173.74,235.73 175.91,250.05C177.31,259.31 179.07,268.5 185.38,276.35C190.46,282.66 201.28,288.36 209.26,286.79C210.37,286.57 211.43,285.11 212.14,283.98C214.26,280.62 215.81,276.81 218.29,273.77C226,264.32 235.97,258.5 248.59,256.71Z" style="fill:url(#_Radial7);fill-rule:nonzero;"/>
                <path d="M184.94,338C180.28,347.43 179.4,357.12 184.26,366.61C187.78,373.48 191,381.2 198.64,384.47C215.66,391.76 231.61,389.29 246.3,377.96C249.65,375.38 250.12,372.98 247.76,369.59C242.27,361.72 240.06,353.15 242.6,343.66C243.43,340.56 242.63,338.74 239.19,337.89C229.49,335.51 221.77,330.27 216.19,321.79C215.27,320.38 212.56,319.07 210.97,319.36C199.42,321.41 190.38,327.27 184.94,338Z" style="fill:url(#_Radial8);fill-rule:nonzero;"/>
                <path d="M314.72,335.49C314.39,335.28 314,334.84 313.56,334.77C302.29,333.1 292.64,328.54 285.41,319.41C284.73,318.55 283.12,318.06 281.93,318.04C269.4,317.76 252.7,330.08 248.41,341.9C243.79,354.62 247.26,365.43 256.25,374.25C263.95,381.81 273.49,387.41 284.92,384.86C292.26,383.22 299.19,379.7 306.27,376.94C309.67,375.62 309.94,373.33 309.36,369.74C308.31,363.29 307.42,356.54 308.27,350.16C308.92,345.21 312.34,340.63 314.72,335.49Z" style="fill:url(#_Radial9);fill-rule:nonzero;"/>
                <path d="M211.65,313.57C210.77,308.48 209.1,302.96 209.1,297.45C209.09,293.11 207.84,291.76 203.86,290.97C194.26,289.07 186.39,284.46 180.82,275.94C179.07,273.26 177.31,269.46 172.5,269.97C155.9,271.75 140.26,291.82 141.88,307.57C142.89,317.38 147.33,324.46 153.6,331.42C159.18,337.6 165.49,340.62 173.75,340.22C177.05,340.06 179.27,339.25 180.89,336.06C184.26,329.41 189.13,324.04 196.06,320.83C201.29,318.42 206.5,315.97 211.65,313.57Z" style="fill:url(#_Radial10);fill-rule:nonzero;"/>
                <path d="M309.97,154.16C321.14,152.35 329.7,155.87 337.78,162.3C346.07,168.9 353.2,184.75 351.15,195C350.13,200.1 346.67,203.45 341.43,204.42C337.84,205.09 334.69,204.34 332.77,201.07C330.21,196.72 331.48,192.31 334.53,189.12C337.47,186.04 341.54,184.04 345.33,181.41C344.32,176.42 343.68,175.86 338.44,175.81C330.38,175.74 321.1,182.38 318.76,190.29C316.27,198.73 318.21,207.3 324.63,211.07C341.95,221.24 357.69,207.55 361.65,193.96C368.99,168.7 351.86,148.9 329.21,145.22C320.29,143.78 313.67,146.95 309.97,154.16Z" style="fill:rgb(153,186,72);fill-rule:nonzero;"/>
                <path d="M438.06,246.01C438.17,245.57 438.28,245.13 438.39,244.68C427.77,241.31 419.33,235.35 414.22,225.32C412.6,222.14 410.01,221.91 407.03,223.35C401.96,225.81 396.77,228.02 391.85,230.75C378.36,238.24 364.51,245.22 353.91,256.99C351.68,259.47 351.51,260.97 353.44,263.72C356.77,268.46 360.13,265.45 362.97,263.91C380.98,254.19 400.25,249.2 420.55,247.74C426.41,247.33 432.23,246.6 438.06,246.01Z" style="fill:rgb(153,133,83);fill-rule:nonzero;"/>
                <path d="M364.74,241C380.43,236.59 385.35,219.94 384.21,208.62C382.7,193.67 377.12,183.39 368,181.71C367.27,185.55 366.42,189.38 365.88,193.25C365.74,194.26 366.24,195.66 366.94,196.44C375.46,206.02 373.76,216.71 370.28,227.49C368.86,231.84 366.81,235.99 364.74,241Z" style="fill:rgb(153,186,72);fill-rule:nonzero;"/>
                <path d="M417.12,221.71C421.43,233.88 431.67,237.91 441.53,242.22C444.79,243.64 448.5,244.7 452.01,244.73C457.77,244.78 460.55,240.45 458.18,235.19C456.87,232.29 454.75,228.88 452.09,227.63C441.2,222.52 429.7,219.76 417.12,221.71Z" style="fill:rgb(169,152,104);fill-rule:nonzero;"/>
            </g>
        </g>
    </g>
    <defs>
        <radialGradient id="_Radial1" cx="0" cy="0" r="1" gradientUnits="userSpaceOnUse" gradientTransform="matrix(33.7284,18.696,-18.696,33.7284,320.648,292.518)"><stop offset="0" style="stop-color:white;stop-opacity:1"/><stop offset="1" style="stop-color:rgb(133,86,131);stop-opacity:1"/></radialGradient>
        <radialGradient id="_Radial2" cx="0" cy="0" r="1" gradientUnits="userSpaceOnUse" gradientTransform="matrix(32.7461,18.1515,-18.1515,32.7461,350.649,356.01)"><stop offset="0" style="stop-color:white;stop-opacity:1"/><stop offset="1" style="stop-color:rgb(133,86,131);stop-opacity:1"/></radialGradient>
        <radialGradient id="_Radial3" cx="0" cy="0" r="1" gradientUnits="userSpaceOnUse" gradientTransform="matrix(32.3332,17.9226,-17.9226,32.3332,286.129,235.68)"><stop offset="0" style="stop-color:white;stop-opacity:1"/><stop offset="1" style="stop-color:rgb(133,86,131);stop-opacity:1"/></radialGradient>
        <radialGradient id="_Radial4" cx="0" cy="0" r="1" gradientUnits="userSpaceOnUse" gradientTransform="matrix(30.3658,16.8321,-16.8321,30.3658,145.008,364.132)"><stop offset="0" style="stop-color:white;stop-opacity:1"/><stop offset="1" style="stop-color:rgb(133,86,131);stop-opacity:1"/></radialGradient>
        <radialGradient id="_Radial5" cx="0" cy="0" r="1" gradientUnits="userSpaceOnUse" gradientTransform="matrix(31.4536,17.4351,-17.4351,31.4536,245.376,190.338)"><stop offset="0" style="stop-color:white;stop-opacity:1"/><stop offset="1" style="stop-color:rgb(133,86,131);stop-opacity:1"/></radialGradient>
        <radialGradient id="_Radial6" cx="0" cy="0" r="1" gradientUnits="userSpaceOnUse" gradientTransform="matrix(30.9884,17.1772,-17.1772,30.9884,248.054,298.917)"><stop offset="0" style="stop-color:white;stop-opacity:1"/><stop offset="1" style="stop-color:rgb(133,86,131);stop-opacity:1"/></radialGradient>
        <radialGradient id="_Radial7" cx="0" cy="0" r="1" gradientUnits="userSpaceOnUse" gradientTransform="matrix(31.1923,17.2902,-17.2902,31.1923,210.02,251.946)"><stop offset="0" style="stop-color:white;stop-opacity:1"/><stop offset="1" style="stop-color:rgb(133,86,131);stop-opacity:1"/></radialGradient>
        <radialGradient id="_Radial8" cx="0" cy="0" r="1" gradientUnits="userSpaceOnUse" gradientTransform="matrix(30.2127,16.7472,-16.7472,30.2127,216.179,357.785)"><stop offset="0" style="stop-color:white;stop-opacity:1"/><stop offset="1" style="stop-color:rgb(133,86,131);stop-opacity:1"/></radialGradient>
        <radialGradient id="_Radial9" cx="0" cy="0" r="1" gradientUnits="userSpaceOnUse" gradientTransform="matrix(29.2051,16.1887,-16.1887,29.2051,281.211,353.514)"><stop offset="0" style="stop-color:white;stop-opacity:1"/><stop offset="1" style="stop-color:rgb(133,86,131);stop-opacity:1"/></radialGradient>
        <radialGradient id="_Radial10" cx="0" cy="0" r="1" gradientUnits="userSpaceOnUse" gradientTransform="matrix(29.4518,16.3254,-16.3254,29.4518,175.465,307.853)"><stop offset="0" style="stop-color:white;stop-opacity:1"/><stop offset="1" style="stop-color:rgb(133,86,131);stop-opacity:1"/></radialGradient>
    </defs>
</svg>
